(Exported by FreeCAD)
(Post Processor: grbl_post)
(Output Time:2018-08-29 10:34:27.257184)
(begin preamble)
G17 G90
G21
(begin operation: T1: End3)
(Path: T1: End3)
(T1: End3)
(begin toolchange)
; M6 T1.0
M3 S500.0000
(finish operation: T1: End3)
(begin operation: Profile_Faces)
(Path: Profile_Faces)
(Profile_Faces)
(Compensated Tool Path. Diameter: 3.18)
G0 Z5.0000
G0 X97.1012 Y42.2928
G0 Z3.0000
G1 X97.1012 Y42.2928 Z-0.4000 F240.00
G3 X96.1425 Y42.3669 Z-0.4000 I-0.6015 J-1.5426 F240.00
G3 X94.8843 Y40.3872 Z-0.4000 I0.3573 J-1.6167 F240.00
G3 X96.8684 Y39.1360 Z-0.4000 I1.6155 J0.3629 F240.00
G3 X97.1012 Y42.2928 Z-0.4000 I-0.3686 J1.6142 F240.00
G0 X97.1012 Y42.2928 Z5.0000
G0 X96.5791 Y26.4053 Z5.0000
G0 X96.5791 Y26.4053 Z2.6000
G1 X96.5791 Y26.4053 Z-0.4000 F240.00
G3 X96.0238 Y26.3590 Z-0.4000 I-0.0791 J-2.4053 F240.00
G3 X94.1410 Y23.5238 Z-0.4000 I0.4762 J-2.3590 F240.00
G3 X96.9762 Y21.6410 Z-0.4000 I2.3590 J0.4762 F240.00
G3 X96.5791 Y26.4053 Z-0.4000 I-0.4762 J2.3590 F240.00
G0 X96.5791 Y26.4053 Z5.0000
G0 X80.8428 Y26.4053 Z5.0000
G0 X80.8428 Y26.4053 Z2.6000
G1 X80.8428 Y26.4053 Z-0.4000 F240.00
G1 X80.8428 Y46.9231 Z-0.4000 F240.00
G1 X12.0228 Y46.9231 Z-0.4000 F240.00
G1 X12.0228 Y25.1031 Z-0.4000 F240.00
G1 X80.8428 Y25.1031 Z-0.4000 F240.00
G1 X80.8428 Y26.4053 Z-0.4000 F240.00
G0 X80.8428 Y26.4053 Z5.0000
G0 X74.8459 Y12.0662 Z5.0000
G0 X74.8459 Y12.0662 Z2.6000
G1 X74.8459 Y12.0662 Z-0.4000 F240.00
G3 X72.1646 Y12.2970 Z-0.4000 I-1.7006 J-4.0662 F240.00
G3 X74.1261 Y3.7030 Z-0.4000 I0.9808 J-4.2970 F240.00
G3 X74.8459 Y12.0662 Z-0.4000 I-0.9808 J4.2970 F240.00
G0 X74.8459 Y12.0662 Z5.0000
G0 X59.6991 Y8.9014 Z5.0000
G0 X59.6991 Y8.9014 Z2.6000
G1 X59.6991 Y8.9014 Z-0.4000 F240.00
G3 X54.4040 Y12.2970 Z-0.4000 I-4.3143 J-0.9014 F240.00
G3 X56.3655 Y3.7030 Z-0.4000 I0.9808 J-4.2970 F240.00
G3 X59.6991 Y8.9014 Z-0.4000 I-0.9808 J4.2970 F240.00
G0 X59.6991 Y8.9014 Z5.0000
G0 X42.0616 Y8.1801 Z5.0000
G0 X42.0616 Y8.1801 Z2.6000
G1 X42.0616 Y8.1801 Z-0.4000 F240.00
G3 X36.6770 Y12.2970 Z-0.4000 I-4.4038 J-0.1801 F240.00
G3 X33.3608 Y7.0192 Z-0.4000 I0.9808 J-4.2970 F240.00
G3 X38.6385 Y3.7030 Z-0.4000 I4.2970 J0.9808 F240.00
G3 X42.0616 Y8.1801 Z-0.4000 I-0.9808 J4.2970 F240.00
G0 X42.0616 Y8.1801 Z5.0000
G0 X24.2709 Y8.0358 Z5.0000
G0 X24.2709 Y8.0358 Z2.6000
G1 X24.2709 Y8.0358 Z-0.4000 F240.00
G3 X18.8828 Y12.2970 Z-0.4000 I-4.4073 J-0.0358 F240.00
G3 X15.5666 Y7.0192 Z-0.4000 I0.9808 J-4.2970 F240.00
G3 X20.8443 Y3.7030 Z-0.4000 I4.2970 J0.9808 F240.00
G3 X24.2709 Y8.0358 Z-0.4000 I-0.9808 J4.2970 F240.00
G1 X24.2709 Y8.0358 Z-0.8000 F240.00
G3 X18.8828 Y12.2970 Z-0.8000 I-4.4073 J-0.0358 F240.00
G3 X15.5666 Y7.0192 Z-0.8000 I0.9808 J-4.2970 F240.00
G3 X20.8443 Y3.7030 Z-0.8000 I4.2970 J0.9808 F240.00
G3 X24.2709 Y8.0358 Z-0.8000 I-0.9808 J4.2970 F240.00
G0 X24.2709 Y8.0358 Z5.0000
G0 X33.2503 Y8.0118 Z5.0000
G0 X33.2503 Y8.0118 Z2.2000
G1 X33.2503 Y8.0118 Z-0.8000 F240.00
G3 X38.6385 Y3.7030 Z-0.8000 I4.4075 J-0.0118 F240.00
G3 X36.6770 Y12.2970 Z-0.8000 I-0.9808 J4.2970 F240.00
G3 X33.2503 Y8.0118 Z-0.8000 I0.9808 J-4.2970 F240.00
G0 X33.2503 Y8.0118 Z5.0000
G0 X33.2503 Y25.1031 Z5.0000
G0 X33.2503 Y25.1031 Z2.2000
G1 X33.2503 Y25.1031 Z-0.8000 F240.00
G1 X80.8428 Y25.1031 Z-0.8000 F240.00
G1 X80.8428 Y46.9231 Z-0.8000 F240.00
G1 X12.0228 Y46.9231 Z-0.8000 F240.00
G1 X12.0228 Y25.1031 Z-0.8000 F240.00
G1 X33.2503 Y25.1031 Z-0.8000 F240.00
G0 X33.2503 Y25.1031 Z5.0000
G0 X51.8971 Y10.6949 Z5.0000
G0 X51.8971 Y10.6949 Z2.2000
G1 X51.8971 Y10.6949 Z-0.8000 F240.00
G3 X56.3655 Y3.7030 Z-0.8000 I3.4876 J-2.6949 F240.00
G3 X54.4040 Y12.2970 Z-0.8000 I-0.9808 J4.2970 F240.00
G3 X51.8971 Y10.6949 Z-0.8000 I0.9808 J-4.2970 F240.00
G0 X51.8971 Y10.6949 Z5.0000
G0 X68.7729 Y8.5546 Z5.0000
G0 X68.7729 Y8.5546 Z2.2000
G1 X68.7729 Y8.5546 Z-0.8000 F240.00
G3 X74.1261 Y3.7030 Z-0.8000 I4.3725 J-0.5546 F240.00
G3 X77.4424 Y8.9808 Z-0.8000 I-0.9808 J4.2970 F240.00
G3 X72.1646 Y12.2970 Z-0.8000 I-4.2970 J-0.9808 F240.00
G3 X68.7729 Y8.5546 Z-0.8000 I0.9808 J-4.2970 F240.00
G0 X68.7729 Y8.5546 Z5.0000
G0 X94.3976 Y22.8289 Z5.0000
G0 X94.3976 Y22.8289 Z2.2000
G1 X94.3976 Y22.8289 Z-0.8000 F240.00
G3 X96.9762 Y21.6410 Z-0.8000 I2.1024 J1.1711 F240.00
G3 X96.0238 Y26.3590 Z-0.8000 I-0.4762 J2.3590 F240.00
G3 X94.3976 Y22.8289 Z-0.8000 I0.4762 J-2.3590 F240.00
G0 X94.3976 Y22.8289 Z5.0000
G0 X96.3069 Y39.1057 Z5.0000
G0 X96.3069 Y39.1057 Z2.2000
G1 X96.3069 Y39.1057 Z-0.8000 F240.00
G3 X96.8684 Y39.1360 Z-0.8000 I0.1929 J1.6445 F240.00
G3 X96.1425 Y42.3669 Z-0.8000 I-0.3686 J1.6142 F240.00
G3 X96.3069 Y39.1057 Z-0.8000 I0.3573 J-1.6167 F240.00
G1 X96.3069 Y39.1057 Z-1.2000 F240.00
G3 X96.8684 Y39.1360 Z-1.2000 I0.1929 J1.6445 F240.00
G3 X96.1425 Y42.3669 Z-1.2000 I-0.3686 J1.6142 F240.00
G3 X96.3069 Y39.1057 Z-1.2000 I0.3573 J-1.6167 F240.00
G0 X96.3069 Y39.1057 Z5.0000
G0 X96.4692 Y26.4064 Z5.0000
G0 X96.4692 Y26.4064 Z1.8000
G1 X96.4692 Y26.4064 Z-1.2000 F240.00
G3 X96.0238 Y26.3590 Z-1.2000 I0.0308 J-2.4064 F240.00
G3 X94.1410 Y23.5238 Z-1.2000 I0.4762 J-2.3590 F240.00
G3 X96.9762 Y21.6410 Z-1.2000 I2.3590 J0.4762 F240.00
G3 X96.4692 Y26.4064 Z-1.2000 I-0.4762 J2.3590 F240.00
G0 X96.4692 Y26.4064 Z5.0000
G0 X80.8428 Y26.4064 Z5.0000
G0 X80.8428 Y26.4064 Z1.8000
G1 X80.8428 Y26.4064 Z-1.2000 F240.00
G1 X80.8428 Y46.9231 Z-1.2000 F240.00
G1 X12.0228 Y46.9231 Z-1.2000 F240.00
G1 X12.0228 Y25.1031 Z-1.2000 F240.00
G1 X80.8428 Y25.1031 Z-1.2000 F240.00
G1 X80.8428 Y26.4064 Z-1.2000 F240.00
G0 X80.8428 Y26.4064 Z5.0000
G0 X74.8458 Y12.0662 Z5.0000
G0 X74.8458 Y12.0662 Z1.8000
G1 X74.8458 Y12.0662 Z-1.2000 F240.00
G3 X72.1646 Y12.2970 Z-1.2000 I-1.7005 J-4.0662 F240.00
G3 X74.1261 Y3.7030 Z-1.2000 I0.9808 J-4.2970 F240.00
G3 X74.8458 Y12.0662 Z-1.2000 I-0.9808 J4.2970 F240.00
G0 X74.8458 Y12.0662 Z5.0000
G0 X59.6991 Y8.9014 Z5.0000
G0 X59.6991 Y8.9014 Z1.8000
G1 X59.6991 Y8.9014 Z-1.2000 F240.00
G3 X54.4040 Y12.2970 Z-1.2000 I-4.3143 J-0.9014 F240.00
G3 X56.3655 Y3.7030 Z-1.2000 I0.9808 J-4.2970 F240.00
G3 X59.6991 Y8.9014 Z-1.2000 I-0.9808 J4.2970 F240.00
G0 X59.6991 Y8.9014 Z5.0000
G0 X42.0616 Y8.1801 Z5.0000
G0 X42.0616 Y8.1801 Z1.8000
G1 X42.0616 Y8.1801 Z-1.2000 F240.00
G3 X36.6770 Y12.2970 Z-1.2000 I-4.4038 J-0.1801 F240.00
G3 X33.3608 Y7.0192 Z-1.2000 I0.9808 J-4.2970 F240.00
G3 X38.6385 Y3.7030 Z-1.2000 I4.2970 J0.9808 F240.00
G3 X42.0616 Y8.1801 Z-1.2000 I-0.9808 J4.2970 F240.00
G0 X42.0616 Y8.1801 Z5.0000
G0 X24.2709 Y8.0358 Z5.0000
G0 X24.2709 Y8.0358 Z1.8000
G1 X24.2709 Y8.0358 Z-1.2000 F240.00
G3 X18.8828 Y12.2970 Z-1.2000 I-4.4073 J-0.0358 F240.00
G3 X15.5666 Y7.0192 Z-1.2000 I0.9808 J-4.2970 F240.00
G3 X20.8443 Y3.7030 Z-1.2000 I4.2970 J0.9808 F240.00
G3 X24.2709 Y8.0358 Z-1.2000 I-0.9808 J4.2970 F240.00
G1 X24.2709 Y8.0358 Z-1.6000 F240.00
G3 X18.8828 Y12.2970 Z-1.6000 I-4.4073 J-0.0358 F240.00
G3 X15.5666 Y7.0192 Z-1.6000 I0.9808 J-4.2970 F240.00
G3 X20.8443 Y3.7030 Z-1.6000 I4.2970 J0.9808 F240.00
G3 X24.2709 Y8.0358 Z-1.6000 I-0.9808 J4.2970 F240.00
G0 X24.2709 Y8.0358 Z5.0000
G0 X33.2503 Y8.0118 Z5.0000
G0 X33.2503 Y8.0118 Z1.4000
G1 X33.2503 Y8.0118 Z-1.6000 F240.00
G3 X38.6385 Y3.7030 Z-1.6000 I4.4075 J-0.0118 F240.00
G3 X36.6770 Y12.2970 Z-1.6000 I-0.9808 J4.2970 F240.00
G3 X33.2503 Y8.0118 Z-1.6000 I0.9808 J-4.2970 F240.00
G0 X33.2503 Y8.0118 Z5.0000
G0 X33.2503 Y25.1031 Z5.0000
G0 X33.2503 Y25.1031 Z1.4000
G1 X33.2503 Y25.1031 Z-1.6000 F240.00
G1 X80.8428 Y25.1031 Z-1.6000 F240.00
G1 X80.8428 Y46.9231 Z-1.6000 F240.00
G1 X12.0228 Y46.9231 Z-1.6000 F240.00
G1 X12.0228 Y25.1031 Z-1.6000 F240.00
G1 X33.2503 Y25.1031 Z-1.6000 F240.00
G0 X33.2503 Y25.1031 Z5.0000
G0 X51.8971 Y10.6949 Z5.0000
G0 X51.8971 Y10.6949 Z1.4000
G1 X51.8971 Y10.6949 Z-1.6000 F240.00
G3 X56.3655 Y3.7030 Z-1.6000 I3.4876 J-2.6949 F240.00
G3 X54.4040 Y12.2970 Z-1.6000 I-0.9808 J4.2970 F240.00
G3 X51.8971 Y10.6949 Z-1.6000 I0.9808 J-4.2970 F240.00
G0 X51.8971 Y10.6949 Z5.0000
G0 X68.7729 Y8.5546 Z5.0000
G0 X68.7729 Y8.5546 Z1.4000
G1 X68.7729 Y8.5546 Z-1.6000 F240.00
G3 X74.1261 Y3.7030 Z-1.6000 I4.3725 J-0.5546 F240.00
G3 X77.4424 Y8.9808 Z-1.6000 I-0.9808 J4.2970 F240.00
G3 X72.1646 Y12.2970 Z-1.6000 I-4.2970 J-0.9808 F240.00
G3 X68.7729 Y8.5546 Z-1.6000 I0.9808 J-4.2970 F240.00
G0 X68.7729 Y8.5546 Z5.0000
G0 X94.3976 Y22.8289 Z5.0000
G0 X94.3976 Y22.8289 Z1.4000
G1 X94.3976 Y22.8289 Z-1.6000 F240.00
G3 X96.9762 Y21.6410 Z-1.6000 I2.1024 J1.1711 F240.00
G3 X96.0238 Y26.3590 Z-1.6000 I-0.4762 J2.3590 F240.00
G3 X94.3976 Y22.8289 Z-1.6000 I0.4762 J-2.3590 F240.00
G0 X94.3976 Y22.8289 Z5.0000
G0 X96.3069 Y39.1057 Z5.0000
G0 X96.3069 Y39.1057 Z1.4000
G1 X96.3069 Y39.1057 Z-1.6000 F240.00
G3 X96.8684 Y39.1360 Z-1.6000 I0.1929 J1.6445 F240.00
G3 X96.1425 Y42.3669 Z-1.6000 I-0.3686 J1.6142 F240.00
G3 X96.3069 Y39.1057 Z-1.6000 I0.3573 J-1.6167 F240.00
G1 X96.3069 Y39.1057 Z-2.0000 F240.00
G3 X96.8684 Y39.1360 Z-2.0000 I0.1929 J1.6445 F240.00
G3 X96.1425 Y42.3669 Z-2.0000 I-0.3686 J1.6142 F240.00
G3 X96.3069 Y39.1057 Z-2.0000 I0.3573 J-1.6167 F240.00
G0 X96.3069 Y39.1057 Z5.0000
G0 X96.4692 Y26.4064 Z5.0000
G0 X96.4692 Y26.4064 Z1.0000
G1 X96.4692 Y26.4064 Z-2.0000 F240.00
G3 X96.0238 Y26.3590 Z-2.0000 I0.0308 J-2.4064 F240.00
G3 X94.1410 Y23.5238 Z-2.0000 I0.4762 J-2.3590 F240.00
G3 X96.9762 Y21.6410 Z-2.0000 I2.3590 J0.4762 F240.00
G3 X96.4692 Y26.4064 Z-2.0000 I-0.4762 J2.3590 F240.00
G0 X96.4692 Y26.4064 Z5.0000
G0 X80.8428 Y26.4064 Z5.0000
G0 X80.8428 Y26.4064 Z1.0000
G1 X80.8428 Y26.4064 Z-2.0000 F240.00
G1 X80.8428 Y46.9231 Z-2.0000 F240.00
G1 X12.0228 Y46.9231 Z-2.0000 F240.00
G1 X12.0228 Y25.1031 Z-2.0000 F240.00
G1 X80.8428 Y25.1031 Z-2.0000 F240.00
G1 X80.8428 Y26.4064 Z-2.0000 F240.00
G0 X80.8428 Y26.4064 Z5.0000
G0 X74.8458 Y12.0662 Z5.0000
G0 X74.8458 Y12.0662 Z1.0000
G1 X74.8458 Y12.0662 Z-2.0000 F240.00
G3 X72.1646 Y12.2970 Z-2.0000 I-1.7005 J-4.0662 F240.00
G3 X74.1261 Y3.7030 Z-2.0000 I0.9808 J-4.2970 F240.00
G3 X74.8458 Y12.0662 Z-2.0000 I-0.9808 J4.2970 F240.00
G0 X74.8458 Y12.0662 Z5.0000
G0 X59.6991 Y8.9014 Z5.0000
G0 X59.6991 Y8.9014 Z1.0000
G1 X59.6991 Y8.9014 Z-2.0000 F240.00
G3 X54.4040 Y12.2970 Z-2.0000 I-4.3143 J-0.9014 F240.00
G3 X56.3655 Y3.7030 Z-2.0000 I0.9808 J-4.2970 F240.00
G3 X59.6991 Y8.9014 Z-2.0000 I-0.9808 J4.2970 F240.00
G0 X59.6991 Y8.9014 Z5.0000
G0 X42.0616 Y8.1801 Z5.0000
G0 X42.0616 Y8.1801 Z1.0000
G1 X42.0616 Y8.1801 Z-2.0000 F240.00
G3 X36.6770 Y12.2970 Z-2.0000 I-4.4038 J-0.1801 F240.00
G3 X33.3608 Y7.0192 Z-2.0000 I0.9808 J-4.2970 F240.00
G3 X38.6385 Y3.7030 Z-2.0000 I4.2970 J0.9808 F240.00
G3 X42.0616 Y8.1801 Z-2.0000 I-0.9808 J4.2970 F240.00
G0 X42.0616 Y8.1801 Z5.0000
G0 X24.2709 Y8.0358 Z5.0000
G0 X24.2709 Y8.0358 Z1.0000
G1 X24.2709 Y8.0358 Z-2.0000 F240.00
G3 X18.8828 Y12.2970 Z-2.0000 I-4.4073 J-0.0358 F240.00
G3 X15.5666 Y7.0192 Z-2.0000 I0.9808 J-4.2970 F240.00
G3 X20.8443 Y3.7030 Z-2.0000 I4.2970 J0.9808 F240.00
G3 X24.2709 Y8.0358 Z-2.0000 I-0.9808 J4.2970 F240.00
G1 X24.2709 Y8.0358 Z-2.4000 F240.00
G3 X18.8828 Y12.2970 Z-2.4000 I-4.4073 J-0.0358 F240.00
G3 X15.5666 Y7.0192 Z-2.4000 I0.9808 J-4.2970 F240.00
G3 X20.8443 Y3.7030 Z-2.4000 I4.2970 J0.9808 F240.00
G3 X24.2709 Y8.0358 Z-2.4000 I-0.9808 J4.2970 F240.00
G0 X24.2709 Y8.0358 Z5.0000
G0 X33.2503 Y8.0118 Z5.0000
G0 X33.2503 Y8.0118 Z0.6000
G1 X33.2503 Y8.0118 Z-2.4000 F240.00
G3 X38.6385 Y3.7030 Z-2.4000 I4.4075 J-0.0118 F240.00
G3 X36.6770 Y12.2970 Z-2.4000 I-0.9808 J4.2970 F240.00
G3 X33.2503 Y8.0118 Z-2.4000 I0.9808 J-4.2970 F240.00
G0 X33.2503 Y8.0118 Z5.0000
G0 X33.2503 Y25.1031 Z5.0000
G0 X33.2503 Y25.1031 Z0.6000
G1 X33.2503 Y25.1031 Z-2.4000 F240.00
G1 X80.8428 Y25.1031 Z-2.4000 F240.00
G1 X80.8428 Y46.9231 Z-2.4000 F240.00
G1 X12.0228 Y46.9231 Z-2.4000 F240.00
G1 X12.0228 Y25.1031 Z-2.4000 F240.00
G1 X33.2503 Y25.1031 Z-2.4000 F240.00
G0 X33.2503 Y25.1031 Z5.0000
G0 X51.8971 Y10.6949 Z5.0000
G0 X51.8971 Y10.6949 Z0.6000
G1 X51.8971 Y10.6949 Z-2.4000 F240.00
G3 X56.3655 Y3.7030 Z-2.4000 I3.4876 J-2.6949 F240.00
G3 X54.4040 Y12.2970 Z-2.4000 I-0.9808 J4.2970 F240.00
G3 X51.8971 Y10.6949 Z-2.4000 I0.9808 J-4.2970 F240.00
G0 X51.8971 Y10.6949 Z5.0000
G0 X68.7729 Y8.5546 Z5.0000
G0 X68.7729 Y8.5546 Z0.6000
G1 X68.7729 Y8.5546 Z-2.4000 F240.00
G3 X74.1261 Y3.7030 Z-2.4000 I4.3725 J-0.5546 F240.00
G3 X77.4424 Y8.9808 Z-2.4000 I-0.9808 J4.2970 F240.00
G3 X72.1646 Y12.2970 Z-2.4000 I-4.2970 J-0.9808 F240.00
G3 X68.7729 Y8.5546 Z-2.4000 I0.9808 J-4.2970 F240.00
G0 X68.7729 Y8.5546 Z5.0000
G0 X94.3976 Y22.8289 Z5.0000
G0 X94.3976 Y22.8289 Z0.6000
G1 X94.3976 Y22.8289 Z-2.4000 F240.00
G3 X96.9762 Y21.6410 Z-2.4000 I2.1024 J1.1711 F240.00
G3 X96.0238 Y26.3590 Z-2.4000 I-0.4762 J2.3590 F240.00
G3 X94.3976 Y22.8289 Z-2.4000 I0.4762 J-2.3590 F240.00
G0 X94.3976 Y22.8289 Z5.0000
G0 X96.3069 Y39.1057 Z5.0000
G0 X96.3069 Y39.1057 Z0.6000
G1 X96.3069 Y39.1057 Z-2.4000 F240.00
G3 X96.8684 Y39.1360 Z-2.4000 I0.1929 J1.6445 F240.00
G3 X96.1425 Y42.3669 Z-2.4000 I-0.3686 J1.6142 F240.00
G3 X96.3069 Y39.1057 Z-2.4000 I0.3573 J-1.6167 F240.00
G1 X96.3069 Y39.1057 Z-2.8000 F240.00
G3 X96.8684 Y39.1360 Z-2.8000 I0.1929 J1.6445 F240.00
G3 X96.1425 Y42.3669 Z-2.8000 I-0.3686 J1.6142 F240.00
G3 X96.3069 Y39.1057 Z-2.8000 I0.3573 J-1.6167 F240.00
G0 X96.3069 Y39.1057 Z5.0000
G0 X96.4692 Y26.4064 Z5.0000
G0 X96.4692 Y26.4064 Z0.2000
G1 X96.4692 Y26.4064 Z-2.8000 F240.00
G3 X96.0238 Y26.3590 Z-2.8000 I0.0308 J-2.4064 F240.00
G3 X94.1410 Y23.5238 Z-2.8000 I0.4762 J-2.3590 F240.00
G3 X96.9762 Y21.6410 Z-2.8000 I2.3590 J0.4762 F240.00
G3 X96.4692 Y26.4064 Z-2.8000 I-0.4762 J2.3590 F240.00
G0 X96.4692 Y26.4064 Z5.0000
G0 X80.8428 Y26.4064 Z5.0000
G0 X80.8428 Y26.4064 Z0.2000
G1 X80.8428 Y26.4064 Z-2.8000 F240.00
G1 X80.8428 Y46.9231 Z-2.8000 F240.00
G1 X12.0228 Y46.9231 Z-2.8000 F240.00
G1 X12.0228 Y25.1031 Z-2.8000 F240.00
G1 X80.8428 Y25.1031 Z-2.8000 F240.00
G1 X80.8428 Y26.4064 Z-2.8000 F240.00
G0 X80.8428 Y26.4064 Z5.0000
G0 X74.8458 Y12.0662 Z5.0000
G0 X74.8458 Y12.0662 Z0.2000
G1 X74.8458 Y12.0662 Z-2.8000 F240.00
G3 X72.1646 Y12.2970 Z-2.8000 I-1.7005 J-4.0662 F240.00
G3 X74.1261 Y3.7030 Z-2.8000 I0.9808 J-4.2970 F240.00
G3 X74.8458 Y12.0662 Z-2.8000 I-0.9808 J4.2970 F240.00
G0 X74.8458 Y12.0662 Z5.0000
G0 X59.6991 Y8.9014 Z5.0000
G0 X59.6991 Y8.9014 Z0.2000
G1 X59.6991 Y8.9014 Z-2.8000 F240.00
G3 X54.4040 Y12.2970 Z-2.8000 I-4.3143 J-0.9014 F240.00
G3 X56.3655 Y3.7030 Z-2.8000 I0.9808 J-4.2970 F240.00
G3 X59.6991 Y8.9014 Z-2.8000 I-0.9808 J4.2970 F240.00
G0 X59.6991 Y8.9014 Z5.0000
G0 X42.0616 Y8.1801 Z5.0000
G0 X42.0616 Y8.1801 Z0.2000
G1 X42.0616 Y8.1801 Z-2.8000 F240.00
G3 X36.6770 Y12.2970 Z-2.8000 I-4.4038 J-0.1801 F240.00
G3 X33.3608 Y7.0192 Z-2.8000 I0.9808 J-4.2970 F240.00
G3 X38.6385 Y3.7030 Z-2.8000 I4.2970 J0.9808 F240.00
G3 X42.0616 Y8.1801 Z-2.8000 I-0.9808 J4.2970 F240.00
G0 X42.0616 Y8.1801 Z5.0000
G0 X24.2709 Y8.0358 Z5.0000
G0 X24.2709 Y8.0358 Z0.2000
G1 X24.2709 Y8.0358 Z-2.8000 F240.00
G3 X18.8828 Y12.2970 Z-2.8000 I-4.4073 J-0.0358 F240.00
G3 X15.5666 Y7.0192 Z-2.8000 I0.9808 J-4.2970 F240.00
G3 X20.8443 Y3.7030 Z-2.8000 I4.2970 J0.9808 F240.00
G3 X24.2709 Y8.0358 Z-2.8000 I-0.9808 J4.2970 F240.00
G1 X24.2709 Y8.0358 Z-3.2000 F240.00
G3 X18.8828 Y12.2970 Z-3.2000 I-4.4073 J-0.0358 F240.00
G3 X15.5666 Y7.0192 Z-3.2000 I0.9808 J-4.2970 F240.00
G3 X20.8443 Y3.7030 Z-3.2000 I4.2970 J0.9808 F240.00
G3 X24.2709 Y8.0358 Z-3.2000 I-0.9808 J4.2970 F240.00
G0 X24.2709 Y8.0358 Z5.0000
G0 X33.2503 Y8.0118 Z5.0000
G0 X33.2503 Y8.0118 Z-0.2000
G1 X33.2503 Y8.0118 Z-3.2000 F240.00
G3 X38.6385 Y3.7030 Z-3.2000 I4.4075 J-0.0118 F240.00
G3 X36.6770 Y12.2970 Z-3.2000 I-0.9808 J4.2970 F240.00
G3 X33.2503 Y8.0118 Z-3.2000 I0.9808 J-4.2970 F240.00
G0 X33.2503 Y8.0118 Z5.0000
G0 X33.2503 Y25.1031 Z5.0000
G0 X33.2503 Y25.1031 Z-0.2000
G1 X33.2503 Y25.1031 Z-3.2000 F240.00
G1 X80.8428 Y25.1031 Z-3.2000 F240.00
G1 X80.8428 Y46.9231 Z-3.2000 F240.00
G1 X12.0228 Y46.9231 Z-3.2000 F240.00
G1 X12.0228 Y25.1031 Z-3.2000 F240.00
G1 X33.2503 Y25.1031 Z-3.2000 F240.00
G0 X33.2503 Y25.1031 Z5.0000
G0 X51.8971 Y10.6949 Z5.0000
G0 X51.8971 Y10.6949 Z-0.2000
G1 X51.8971 Y10.6949 Z-3.2000 F240.00
G3 X56.3655 Y3.7030 Z-3.2000 I3.4876 J-2.6949 F240.00
G3 X54.4040 Y12.2970 Z-3.2000 I-0.9808 J4.2970 F240.00
G3 X51.8971 Y10.6949 Z-3.2000 I0.9808 J-4.2970 F240.00
G0 X51.8971 Y10.6949 Z5.0000
G0 X68.7729 Y8.5546 Z5.0000
G0 X68.7729 Y8.5546 Z-0.2000
G1 X68.7729 Y8.5546 Z-3.2000 F240.00
G3 X74.1261 Y3.7030 Z-3.2000 I4.3725 J-0.5546 F240.00
G3 X77.4424 Y8.9808 Z-3.2000 I-0.9808 J4.2970 F240.00
G3 X72.1646 Y12.2970 Z-3.2000 I-4.2970 J-0.9808 F240.00
G3 X68.7729 Y8.5546 Z-3.2000 I0.9808 J-4.2970 F240.00
G0 X68.7729 Y8.5546 Z5.0000
G0 X94.3976 Y22.8289 Z5.0000
G0 X94.3976 Y22.8289 Z-0.2000
G1 X94.3976 Y22.8289 Z-3.2000 F240.00
G3 X96.9762 Y21.6410 Z-3.2000 I2.1024 J1.1711 F240.00
G3 X96.0238 Y26.3590 Z-3.2000 I-0.4762 J2.3590 F240.00
G3 X94.3976 Y22.8289 Z-3.2000 I0.4762 J-2.3590 F240.00
G0 X94.3976 Y22.8289 Z5.0000
G0 X96.3069 Y39.1057 Z5.0000
G0 X96.3069 Y39.1057 Z-0.2000
G1 X96.3069 Y39.1057 Z-3.2000 F240.00
G3 X96.8684 Y39.1360 Z-3.2000 I0.1929 J1.6445 F240.00
G3 X96.1425 Y42.3669 Z-3.2000 I-0.3686 J1.6142 F240.00
G3 X96.3069 Y39.1057 Z-3.2000 I0.3573 J-1.6167 F240.00
G1 X96.3069 Y39.1057 Z-3.6000 F240.00
G3 X96.8684 Y39.1360 Z-3.6000 I0.1929 J1.6445 F240.00
G3 X96.1425 Y42.3669 Z-3.6000 I-0.3686 J1.6142 F240.00
G3 X96.3069 Y39.1057 Z-3.6000 I0.3573 J-1.6167 F240.00
G0 X96.3069 Y39.1057 Z5.0000
G0 X96.4692 Y26.4064 Z5.0000
G0 X96.4692 Y26.4064 Z-0.6000
G1 X96.4692 Y26.4064 Z-3.6000 F240.00
G3 X96.0238 Y26.3590 Z-3.6000 I0.0308 J-2.4064 F240.00
G3 X94.1410 Y23.5238 Z-3.6000 I0.4762 J-2.3590 F240.00
G3 X96.9762 Y21.6410 Z-3.6000 I2.3590 J0.4762 F240.00
G3 X96.4692 Y26.4064 Z-3.6000 I-0.4762 J2.3590 F240.00
G0 X96.4692 Y26.4064 Z5.0000
G0 X80.8428 Y26.4064 Z5.0000
G0 X80.8428 Y26.4064 Z-0.6000
G1 X80.8428 Y26.4064 Z-3.6000 F240.00
G1 X80.8428 Y46.9231 Z-3.6000 F240.00
G1 X12.0228 Y46.9231 Z-3.6000 F240.00
G1 X12.0228 Y25.1031 Z-3.6000 F240.00
G1 X80.8428 Y25.1031 Z-3.6000 F240.00
G1 X80.8428 Y26.4064 Z-3.6000 F240.00
G0 X80.8428 Y26.4064 Z5.0000
G0 X74.8458 Y12.0662 Z5.0000
G0 X74.8458 Y12.0662 Z-0.6000
G1 X74.8458 Y12.0662 Z-3.6000 F240.00
G3 X72.1646 Y12.2970 Z-3.6000 I-1.7005 J-4.0662 F240.00
G3 X74.1261 Y3.7030 Z-3.6000 I0.9808 J-4.2970 F240.00
G3 X74.8458 Y12.0662 Z-3.6000 I-0.9808 J4.2970 F240.00
G0 X74.8458 Y12.0662 Z5.0000
G0 X59.6991 Y8.9014 Z5.0000
G0 X59.6991 Y8.9014 Z-0.6000
G1 X59.6991 Y8.9014 Z-3.6000 F240.00
G3 X54.4040 Y12.2970 Z-3.6000 I-4.3143 J-0.9014 F240.00
G3 X56.3655 Y3.7030 Z-3.6000 I0.9808 J-4.2970 F240.00
G3 X59.6991 Y8.9014 Z-3.6000 I-0.9808 J4.2970 F240.00
G0 X59.6991 Y8.9014 Z5.0000
G0 X42.0616 Y8.1801 Z5.0000
G0 X42.0616 Y8.1801 Z-0.6000
G1 X42.0616 Y8.1801 Z-3.6000 F240.00
G3 X36.6770 Y12.2970 Z-3.6000 I-4.4038 J-0.1801 F240.00
G3 X33.3608 Y7.0192 Z-3.6000 I0.9808 J-4.2970 F240.00
G3 X38.6385 Y3.7030 Z-3.6000 I4.2970 J0.9808 F240.00
G3 X42.0616 Y8.1801 Z-3.6000 I-0.9808 J4.2970 F240.00
G0 X42.0616 Y8.1801 Z5.0000
G0 X24.2709 Y8.0358 Z5.0000
G0 X24.2709 Y8.0358 Z-0.6000
G1 X24.2709 Y8.0358 Z-3.6000 F240.00
G3 X18.8828 Y12.2970 Z-3.6000 I-4.4073 J-0.0358 F240.00
G3 X15.5666 Y7.0192 Z-3.6000 I0.9808 J-4.2970 F240.00
G3 X20.8443 Y3.7030 Z-3.6000 I4.2970 J0.9808 F240.00
G3 X24.2709 Y8.0358 Z-3.6000 I-0.9808 J4.2970 F240.00
G1 X24.2709 Y8.0358 Z-4.0000 F240.00
G3 X18.8828 Y12.2970 Z-4.0000 I-4.4073 J-0.0358 F240.00
G3 X15.5666 Y7.0192 Z-4.0000 I0.9808 J-4.2970 F240.00
G3 X20.8443 Y3.7030 Z-4.0000 I4.2970 J0.9808 F240.00
G3 X24.2709 Y8.0358 Z-4.0000 I-0.9808 J4.2970 F240.00
G0 X24.2709 Y8.0358 Z5.0000
G0 X33.2503 Y8.0118 Z5.0000
G0 X33.2503 Y8.0118 Z-1.0000
G1 X33.2503 Y8.0118 Z-4.0000 F240.00
G3 X38.6385 Y3.7030 Z-4.0000 I4.4075 J-0.0118 F240.00
G3 X36.6770 Y12.2970 Z-4.0000 I-0.9808 J4.2970 F240.00
G3 X33.2503 Y8.0118 Z-4.0000 I0.9808 J-4.2970 F240.00
G0 X33.2503 Y8.0118 Z5.0000
G0 X33.2503 Y25.1031 Z5.0000
G0 X33.2503 Y25.1031 Z-1.0000
G1 X33.2503 Y25.1031 Z-4.0000 F240.00
G1 X80.8428 Y25.1031 Z-4.0000 F240.00
G1 X80.8428 Y46.9231 Z-4.0000 F240.00
G1 X12.0228 Y46.9231 Z-4.0000 F240.00
G1 X12.0228 Y25.1031 Z-4.0000 F240.00
G1 X33.2503 Y25.1031 Z-4.0000 F240.00
G0 X33.2503 Y25.1031 Z5.0000
G0 X51.8971 Y10.6949 Z5.0000
G0 X51.8971 Y10.6949 Z-1.0000
G1 X51.8971 Y10.6949 Z-4.0000 F240.00
G3 X56.3655 Y3.7030 Z-4.0000 I3.4876 J-2.6949 F240.00
G3 X54.4040 Y12.2970 Z-4.0000 I-0.9808 J4.2970 F240.00
G3 X51.8971 Y10.6949 Z-4.0000 I0.9808 J-4.2970 F240.00
G0 X51.8971 Y10.6949 Z5.0000
G0 X68.7729 Y8.5546 Z5.0000
G0 X68.7729 Y8.5546 Z-1.0000
G1 X68.7729 Y8.5546 Z-4.0000 F240.00
G3 X74.1261 Y3.7030 Z-4.0000 I4.3725 J-0.5546 F240.00
G3 X77.4424 Y8.9808 Z-4.0000 I-0.9808 J4.2970 F240.00
G3 X72.1646 Y12.2970 Z-4.0000 I-4.2970 J-0.9808 F240.00
G3 X68.7729 Y8.5546 Z-4.0000 I0.9808 J-4.2970 F240.00
G0 X68.7729 Y8.5546 Z5.0000
G0 X94.3976 Y22.8289 Z5.0000
G0 X94.3976 Y22.8289 Z-1.0000
G1 X94.3976 Y22.8289 Z-4.0000 F240.00
G3 X96.9762 Y21.6410 Z-4.0000 I2.1024 J1.1711 F240.00
G3 X96.0238 Y26.3590 Z-4.0000 I-0.4762 J2.3590 F240.00
G3 X94.3976 Y22.8289 Z-4.0000 I0.4762 J-2.3590 F240.00
G0 X94.3976 Y22.8289 Z5.0000
G0 X96.3069 Y39.1057 Z5.0000
G0 X96.3069 Y39.1057 Z-1.0000
G1 X96.3069 Y39.1057 Z-4.0000 F240.00
G3 X96.8684 Y39.1360 Z-4.0000 I0.1929 J1.6445 F240.00
G3 X96.1425 Y42.3669 Z-4.0000 I-0.3686 J1.6142 F240.00
G3 X96.3069 Y39.1057 Z-4.0000 I0.3573 J-1.6167 F240.00
G0 Z5.0000
(finish operation: Profile_Faces)
(begin postamble)
M5
G17 G90
; M2
