(Exported by FreeCAD)
(Post Processor: grbl_post)
(Output Time:2018-08-29 12:53:13.194686)
(begin preamble)
G17 G90
G21
(begin operation: T2: Engraver)
(Path: T2: Engraver)
(T2: Engraver)
(begin toolchange)
; M6 T2.0
M3 S500.0000
(finish operation: T2: Engraver)
(begin operation: Contour)
(Path: Contour)
(Contour)
(Compensated Tool Path. Diameter: 0.4)
G0 Z5.0000
G0 X107.1212 Y10.1416
G0 Z3.0000
G1 X107.1212 Y10.1416 Z-0.3330 F180.00
G2 X107.2522 Y9.9268 Z-0.3330 I-0.1310 J-0.2272 F180.00
G1 X107.2522 Y9.3978 Z-0.3330 F180.00
G1 X107.3576 Y9.3599 Z-0.3330 F180.00
G2 X107.6997 Y9.0558 Z-0.3330 I-0.0560 J-0.4075 F180.00
G1 X107.6997 Y6.9258 Z-0.3330 F180.00
G1 X107.6648 Y6.8129 Z-0.3330 F180.00
G2 X107.2685 Y6.6176 Z-0.3330 I-1.1316 J1.7969 F180.00
G1 X107.3681 Y6.5761 Z-0.3330 F180.00
G2 X107.6928 Y6.3016 Z-0.3330 I-0.0500 J-0.3884 F180.00
G2 X107.6997 Y4.1618 Z-0.3330 I-165.0811 J-1.6049 F180.00
G1 X107.6809 Y4.0776 Z-0.3330 F180.00
G2 X107.2718 Y3.8279 Z-0.3330 I-0.7229 J0.7245 F180.00
G2 X107.0782 Y3.4120 Z-0.3330 I-0.4538 J-0.0418 F180.00
G2 X106.5365 Y3.2418 Z-0.3330 I-0.9260 J2.0005 F180.00
G2 X104.6705 Y3.9611 Z-0.3330 I6.0219 J18.4007 F180.00
G1 X104.5905 Y4.0204 Z-0.3330 F180.00
G2 X104.5314 Y4.6915 Z-0.3330 I1.8604 J0.5021 F180.00
G2 X104.2098 Y4.8487 Z-0.3330 I0.2664 J0.9524 F180.00
G2 X103.8926 Y4.6840 Z-0.3330 I-0.9555 J1.4523 F180.00
G3 X103.8774 Y4.3226 Z-0.3330 I1.5398 J-0.2458 F180.00
G2 X103.6749 Y3.9035 Z-0.3330 I-0.3983 J-0.0661 F180.00
G2 X101.8470 Y3.2365 Z-0.3330 I-33.4002 J88.6979 F180.00
G2 X101.4084 Y3.3994 Z-0.3330 I0.2906 J1.4542 F180.00
G2 X101.1822 Y3.8257 Z-0.3330 I0.1297 J0.3420 F180.00
G1 X101.0809 Y3.8663 Z-0.3330 F180.00
G2 X100.7531 Y4.1354 Z-0.3330 I0.0419 J0.3851 F180.00
G2 X100.7397 Y6.2692 Z-0.3330 I84.5510 J1.5986 F180.00
G1 X100.7620 Y6.3604 Z-0.3330 F180.00
G2 X101.1700 Y6.5935 Z-0.3330 I0.7290 J-0.8022 F180.00
G1 X101.0868 Y6.6276 Z-0.3330 F180.00
G2 X100.7532 Y6.8794 Z-0.3330 I0.0204 J0.3739 F180.00
G2 X100.7602 Y9.0481 Z-0.3330 I22.1157 J1.0133 F180.00
G1 X100.7831 Y9.1333 Z-0.3330 F180.00
G2 X101.1872 Y9.3584 Z-0.3330 I0.6814 J-0.7478 F180.00
G1 X101.1872 Y9.8793 Z-0.3330 F180.00
G2 X101.3555 Y10.1101 Z-0.3330 I0.2739 J-0.0229 F180.00
G3 X102.3908 Y10.5071 Z-0.3330 I-1.4416 J5.3081 F180.00
G2 X103.7459 Y10.6092 Z-0.3330 I0.7560 J-0.9908 F180.00
G2 X103.8762 Y10.2170 Z-0.3330 I-0.2488 J-0.3004 F180.00
G3 X104.1701 Y10.1109 Z-0.3330 I0.7078 J1.5008 F180.00
G2 X104.5324 Y10.2621 Z-0.3330 I0.8524 J-1.5325 F180.00
G2 X104.5681 Y10.5558 Z-0.3330 I0.4870 J0.0898 F180.00
G2 X105.7275 Y10.7361 Z-0.3330 I0.7207 J-0.8168 F180.00
G3 X107.0814 Y10.1603 Z-0.3330 I2.5296 J4.0687 F180.00
G2 X107.1212 Y10.1416 Z-0.3330 I-0.0912 J-0.2459 F180.00
G0 X107.1212 Y10.1416 Z5.0000
G0 X104.4903 Y7.4864 Z5.0000
G0 X104.4903 Y7.4864 Z2.6670
G1 X104.4903 Y7.4864 Z-0.3330 F180.00
G2 X104.2205 Y7.6110 Z-0.3330 I0.6668 J1.7987 F180.00
G2 X103.8824 Y7.4458 Z-0.3330 I-0.7416 J1.0891 F180.00
G2 X104.1889 Y7.3337 Z-0.3330 I-1.6644 J-5.0260 F180.00
G2 X104.4903 Y7.4864 Z-0.3330 I0.9197 J-1.4423 F180.00
G0 X104.4903 Y7.4864 Z5.0000
G0 X100.2025 Y9.5239 Z5.0000
G0 X100.2025 Y9.5239 Z2.6670
G1 X100.2025 Y9.5239 Z-0.3330 F180.00
G1 X100.1369 Y9.4425 Z-0.3330 F180.00
G2 X99.7702 Y9.4043 Z-0.3330 I-0.2422 J0.5453 F180.00
G2 X99.5748 Y9.6471 Z-0.3330 I0.0000 J0.2000 F180.00
G1 X99.7286 Y10.3477 Z-0.3330 F180.00
G1 X99.7286 Y10.7139 Z-0.3330 F180.00
G2 X99.9286 Y10.9139 Z-0.3330 I0.2000 J0.0000 F180.00
G1 X100.3362 Y10.9139 Z-0.3330 F180.00
G2 X100.5362 Y10.7139 Z-0.3330 I0.0000 J-0.2000 F180.00
G2 X100.5194 Y10.2456 Z-0.3330 I-1.1244 J-0.1940 F180.00
G1 X100.2025 Y9.5239 Z-0.3330 F180.00
G0 X100.2025 Y9.5239 Z5.0000
G0 X97.5842 Y9.5239 Z5.0000
G0 X97.5842 Y9.5239 Z2.6670
G1 X97.5842 Y9.5239 Z-0.3330 F180.00
G1 X97.5842 Y7.7572 Z-0.3330 F180.00
G1 X97.5540 Y7.6515 Z-0.3330 F180.00
G2 X97.1433 Y7.4460 Z-0.3330 I-0.7639 J1.0133 F180.00
G1 X97.1433 Y6.9257 Z-0.3330 F180.00
G2 X97.1008 Y6.7947 Z-0.3330 I-0.2920 J0.0223 F180.00
G2 X96.6956 Y6.5878 Z-0.3330 I-1.3341 J2.1124 F180.00
G1 X96.6956 Y3.9800 Z-0.3330 F180.00
G2 X96.2593 Y3.6547 Z-0.3330 I-0.4296 J0.1210 F180.00
G2 X95.9482 Y3.5231 Z-0.3330 I-1.3343 J2.7214 F180.00
G2 X95.2350 Y3.5089 Z-0.3330 I-0.3681 J0.5695 F180.00
G2 X94.8984 Y3.8022 Z-0.3330 I0.0552 J0.4032 F180.00
G3 X94.8709 Y6.0704 Z-0.3330 I-24.3994 J0.8386 F180.00
G1 X94.7822 Y6.1084 Z-0.3330 F180.00
G2 X94.4592 Y6.3528 Z-0.3330 I0.0536 J0.4065 F180.00
G3 X94.4168 Y6.6022 Z-0.3330 I-0.6731 J0.0139 F180.00
G2 X94.0233 Y6.8837 Z-0.3330 I0.0166 J0.4390 F180.00
G1 X94.0158 Y7.5017 Z-0.3330 F180.00
G2 X93.7602 Y7.3920 Z-0.3330 I-1.1409 J2.3058 F180.00
G1 X93.7602 Y7.2029 Z-0.3330 F180.00
G2 X93.2990 Y6.8581 Z-0.3330 I-0.5503 J0.2553 F180.00
G2 X93.2470 Y6.5219 Z-0.3330 I-0.4607 J-0.1008 F180.00
G2 X92.8613 Y6.3312 Z-0.3330 I-1.3359 J2.2153 F180.00
G3 X92.8282 Y6.0548 Z-0.3330 I1.0797 J-0.2694 F180.00
G2 X92.3901 Y5.7878 Z-0.3330 I-0.6870 J0.6343 F180.00
G1 X92.3901 Y5.0938 Z-0.3330 F180.00
G3 X94.0643 Y4.4366 Z-0.3330 I15.3243 J36.5786 F180.00
G2 X94.2147 Y4.2096 Z-0.3330 I-0.1182 J-0.2416 F180.00
G1 X94.2147 Y3.4653 Z-0.3330 F180.00
G1 X94.1935 Y3.3757 Z-0.3330 F180.00
G2 X93.5126 Y3.0651 Z-0.3330 I-0.8447 J0.9499 F180.00
G1 X93.5124 Y3.0658 Z-0.3330 F180.00
G2 X93.3982 Y3.0687 Z-0.3330 I-0.0525 J0.1829 F180.00
G2 X90.6853 Y4.1528 Z-0.3330 I101.6206 J258.2414 F180.00
G1 X90.6719 Y4.1269 Z-0.3330 F180.00
G2 X90.2335 Y3.9583 Z-0.3330 I-0.5648 J0.8141 F180.00
G2 X89.2652 Y3.8394 Z-0.3330 I-0.6204 J1.0503 F180.00
G2 X89.0001 Y4.0816 Z-0.3330 I0.1175 J0.3947 F180.00
G1 X88.9910 Y3.6041 Z-0.3330 F180.00
G1 X88.9672 Y3.5133 Z-0.3330 F180.00
G2 X88.1384 Y3.1313 Z-0.3330 I-1.3467 J1.8322 F180.00
G2 X87.3175 Y3.2637 Z-0.3330 I-0.2799 J0.8758 F180.00
G2 X86.7144 Y3.0599 Z-0.3330 I-0.5914 J0.7554 F180.00
G2 X83.9673 Y4.1191 Z-0.3330 I14.3718 J41.3651 F180.00
G2 X83.8419 Y4.3038 Z-0.3330 I0.0746 J0.1856 F180.00
G2 X83.8837 Y10.2432 Z-0.3330 I192.2040 J1.6168 F180.00
G2 X83.9221 Y10.7181 Z-0.3330 I1.1841 J0.1433 F180.00
G2 X84.5919 Y10.9862 Z-0.3330 I0.5377 J-0.3725 F180.00
G2 X85.2747 Y10.7350 Z-0.3330 I-16.5187 J-45.9505 F180.00
G2 X85.6457 Y10.4706 Z-0.3330 I0.0155 J-0.3707 F180.00
G1 X85.6526 Y5.0401 Z-0.3330 F180.00
G2 X87.1935 Y4.4337 Z-0.3330 I-8.5189 J-23.9072 F180.00
G1 X87.1935 Y8.3432 Z-0.3330 F180.00
G1 X87.2236 Y8.4487 Z-0.3330 F180.00
G2 X87.6415 Y8.6559 Z-0.3330 I0.7684 J-1.0250 F180.00
G2 X87.6577 Y9.2535 Z-0.3330 I1.4601 J0.2593 F180.00
G2 X88.0890 Y9.5251 Z-0.3330 I0.7386 J-0.6945 F180.00
G1 X88.0890 Y10.0534 Z-0.3330 F180.00
G2 X88.2067 Y10.2415 Z-0.3330 I0.3286 J-0.0748 F180.00
G2 X88.6825 Y10.4457 Z-0.3330 I0.5941 J-0.7276 F180.00
G2 X89.6297 Y10.5180 Z-0.3330 I0.5530 J-1.0038 F180.00
G2 X89.8772 Y10.0487 Z-0.3330 I-0.1514 J-0.3798 F180.00
G2 X90.3023 Y9.8149 Z-0.3330 I-1.0226 J-2.3628 F180.00
G2 X90.3405 Y9.5147 Z-0.3330 I-0.4428 J-0.2089 F180.00
G1 X90.4365 Y9.4770 Z-0.3330 F180.00
G2 X90.7746 Y9.1754 Z-0.3330 I-0.0595 J-0.4070 F180.00
G2 X90.7786 Y6.7728 Z-0.3330 I-207.9779 J-1.5485 F180.00
G2 X90.9821 Y6.8545 Z-0.3330 I1.3196 J-2.9925 F180.00
G2 X91.0509 Y7.1929 Z-0.3330 I3.2725 J-0.4890 F180.00
G2 X91.4361 Y7.3807 Z-0.3330 I1.4713 J-2.5291 F180.00
G3 X91.4749 Y7.6715 Z-0.3330 I-1.3898 J0.3332 F180.00
G2 X91.9087 Y7.9267 Z-0.3330 I0.8051 J-0.8721 F180.00
G2 X91.9437 Y8.2266 Z-0.3330 I0.5015 J0.0934 F180.00
G2 X92.3631 Y8.4515 Z-0.3330 I0.6049 J-0.6247 F180.00
G1 X92.3631 Y9.1371 Z-0.3330 F180.00
G3 X90.6920 Y9.8201 Z-0.3330 I-23.7776 J-55.7915 F180.00
G1 X90.5974 Y9.8979 Z-0.3330 F180.00
G2 X90.5949 Y10.9020 Z-0.3330 I1.5852 J0.5061 F180.00
G2 X91.2149 Y11.1462 Z-0.3330 I0.7613 J-1.0234 F180.00
G2 X94.0614 Y10.1127 Z-0.3330 I-11.4557 J-35.9885 F180.00
G2 X94.2001 Y9.9346 Z-0.3330 I-0.1224 J-0.2383 F180.00
G2 X94.7964 Y10.1717 Z-0.3330 I2.3595 J-5.0657 F180.00
G2 X95.7801 Y9.9420 Z-0.3330 I0.3627 J-0.6679 F180.00
G1 X95.7801 Y10.4020 Z-0.3330 F180.00
G1 X95.8034 Y10.4956 Z-0.3330 F180.00
G2 X96.9767 Y10.9482 Z-0.3330 I1.4918 J-2.1201 F180.00
G2 X97.5842 Y10.5604 Z-0.3330 I0.0122 J-0.6506 F180.00
G1 X97.5842 Y9.5239 Z-0.3330 F180.00
G1 X97.5842 Y9.5239 Z-0.6660 F180.00
G1 X97.5842 Y7.7572 Z-0.6660 F180.00
G1 X97.5540 Y7.6515 Z-0.6660 F180.00
G2 X97.1433 Y7.4460 Z-0.6660 I-0.7639 J1.0133 F180.00
G1 X97.1433 Y6.9257 Z-0.6660 F180.00
G2 X97.1008 Y6.7947 Z-0.6660 I-0.2920 J0.0223 F180.00
G2 X96.6956 Y6.5878 Z-0.6660 I-1.3341 J2.1124 F180.00
G1 X96.6956 Y3.9800 Z-0.6660 F180.00
G2 X96.2593 Y3.6547 Z-0.6660 I-0.4296 J0.1210 F180.00
G2 X95.9482 Y3.5231 Z-0.6660 I-1.3343 J2.7214 F180.00
G2 X95.2350 Y3.5089 Z-0.6660 I-0.3681 J0.5695 F180.00
G2 X94.8984 Y3.8022 Z-0.6660 I0.0552 J0.4032 F180.00
G3 X94.8709 Y6.0704 Z-0.6660 I-24.3994 J0.8386 F180.00
G1 X94.7822 Y6.1084 Z-0.6660 F180.00
G2 X94.4592 Y6.3528 Z-0.6660 I0.0536 J0.4065 F180.00
G3 X94.4168 Y6.6022 Z-0.6660 I-0.6731 J0.0139 F180.00
G2 X94.0233 Y6.8837 Z-0.6660 I0.0166 J0.4390 F180.00
G1 X94.0158 Y7.5017 Z-0.6660 F180.00
G2 X93.7602 Y7.3920 Z-0.6660 I-1.1409 J2.3058 F180.00
G1 X93.7602 Y7.2029 Z-0.6660 F180.00
G2 X93.2990 Y6.8581 Z-0.6660 I-0.5503 J0.2553 F180.00
G2 X93.2470 Y6.5219 Z-0.6660 I-0.4607 J-0.1008 F180.00
G2 X92.8613 Y6.3312 Z-0.6660 I-1.3359 J2.2153 F180.00
G3 X92.8282 Y6.0548 Z-0.6660 I1.0797 J-0.2694 F180.00
G2 X92.3901 Y5.7878 Z-0.6660 I-0.6870 J0.6343 F180.00
G1 X92.3901 Y5.0938 Z-0.6660 F180.00
G3 X94.0643 Y4.4366 Z-0.6660 I15.3243 J36.5786 F180.00
G2 X94.2147 Y4.2096 Z-0.6660 I-0.1182 J-0.2416 F180.00
G1 X94.2147 Y3.4653 Z-0.6660 F180.00
G1 X94.1935 Y3.3757 Z-0.6660 F180.00
G2 X93.5126 Y3.0651 Z-0.6660 I-0.8447 J0.9499 F180.00
G1 X93.5124 Y3.0658 Z-0.6660 F180.00
G2 X93.3982 Y3.0687 Z-0.6660 I-0.0525 J0.1829 F180.00
G2 X90.6853 Y4.1528 Z-0.6660 I101.6206 J258.2414 F180.00
G1 X90.6719 Y4.1269 Z-0.6660 F180.00
G2 X90.2335 Y3.9583 Z-0.6660 I-0.5648 J0.8141 F180.00
G2 X89.2652 Y3.8394 Z-0.6660 I-0.6204 J1.0503 F180.00
G2 X89.0001 Y4.0816 Z-0.6660 I0.1175 J0.3947 F180.00
G1 X88.9910 Y3.6041 Z-0.6660 F180.00
G1 X88.9672 Y3.5133 Z-0.6660 F180.00
G2 X88.1384 Y3.1313 Z-0.6660 I-1.3467 J1.8322 F180.00
G2 X87.3175 Y3.2637 Z-0.6660 I-0.2799 J0.8758 F180.00
G2 X86.7144 Y3.0599 Z-0.6660 I-0.5914 J0.7554 F180.00
G2 X83.9673 Y4.1191 Z-0.6660 I14.3718 J41.3651 F180.00
G2 X83.8419 Y4.3038 Z-0.6660 I0.0746 J0.1856 F180.00
G2 X83.8837 Y10.2432 Z-0.6660 I192.2040 J1.6168 F180.00
G2 X83.9221 Y10.7181 Z-0.6660 I1.1841 J0.1433 F180.00
G2 X84.5919 Y10.9862 Z-0.6660 I0.5377 J-0.3725 F180.00
G2 X85.2747 Y10.7350 Z-0.6660 I-16.5187 J-45.9505 F180.00
G2 X85.6457 Y10.4706 Z-0.6660 I0.0155 J-0.3707 F180.00
G1 X85.6526 Y5.0401 Z-0.6660 F180.00
G2 X87.1935 Y4.4337 Z-0.6660 I-8.5189 J-23.9072 F180.00
G1 X87.1935 Y8.3432 Z-0.6660 F180.00
G1 X87.2236 Y8.4487 Z-0.6660 F180.00
G2 X87.6415 Y8.6559 Z-0.6660 I0.7684 J-1.0250 F180.00
G2 X87.6577 Y9.2535 Z-0.6660 I1.4601 J0.2593 F180.00
G2 X88.0890 Y9.5251 Z-0.6660 I0.7386 J-0.6945 F180.00
G1 X88.0890 Y10.0534 Z-0.6660 F180.00
G2 X88.2067 Y10.2415 Z-0.6660 I0.3286 J-0.0748 F180.00
G2 X88.6825 Y10.4457 Z-0.6660 I0.5941 J-0.7276 F180.00
G2 X89.6297 Y10.5180 Z-0.6660 I0.5530 J-1.0038 F180.00
G2 X89.8772 Y10.0487 Z-0.6660 I-0.1514 J-0.3798 F180.00
G2 X90.3023 Y9.8149 Z-0.6660 I-1.0226 J-2.3628 F180.00
G2 X90.3405 Y9.5147 Z-0.6660 I-0.4428 J-0.2089 F180.00
G1 X90.4365 Y9.4770 Z-0.6660 F180.00
G2 X90.7746 Y9.1754 Z-0.6660 I-0.0595 J-0.4070 F180.00
G2 X90.7786 Y6.7728 Z-0.6660 I-207.9779 J-1.5485 F180.00
G2 X90.9821 Y6.8545 Z-0.6660 I1.3196 J-2.9925 F180.00
G2 X91.0509 Y7.1929 Z-0.6660 I3.2725 J-0.4890 F180.00
G2 X91.4361 Y7.3807 Z-0.6660 I1.4713 J-2.5291 F180.00
G3 X91.4749 Y7.6715 Z-0.6660 I-1.3898 J0.3332 F180.00
G2 X91.9087 Y7.9267 Z-0.6660 I0.8051 J-0.8721 F180.00
G2 X91.9437 Y8.2266 Z-0.6660 I0.5015 J0.0934 F180.00
G2 X92.3631 Y8.4515 Z-0.6660 I0.6049 J-0.6247 F180.00
G1 X92.3631 Y9.1371 Z-0.6660 F180.00
G3 X90.6920 Y9.8201 Z-0.6660 I-23.7776 J-55.7915 F180.00
G1 X90.5974 Y9.8979 Z-0.6660 F180.00
G2 X90.5949 Y10.9020 Z-0.6660 I1.5852 J0.5061 F180.00
G2 X91.2149 Y11.1462 Z-0.6660 I0.7613 J-1.0234 F180.00
G2 X94.0614 Y10.1127 Z-0.6660 I-11.4557 J-35.9885 F180.00
G2 X94.2001 Y9.9346 Z-0.6660 I-0.1224 J-0.2383 F180.00
G2 X94.7964 Y10.1717 Z-0.6660 I2.3595 J-5.0657 F180.00
G2 X95.7801 Y9.9420 Z-0.6660 I0.3627 J-0.6679 F180.00
G1 X95.7801 Y10.4020 Z-0.6660 F180.00
G1 X95.8034 Y10.4956 Z-0.6660 F180.00
G2 X96.9767 Y10.9482 Z-0.6660 I1.4918 J-2.1201 F180.00
G2 X97.5842 Y10.5604 Z-0.6660 I0.0122 J-0.6506 F180.00
G1 X97.5842 Y9.5239 Z-0.6660 F180.00
G0 X97.5842 Y9.5239 Z5.0000
G0 X99.5703 Y9.5969 Z5.0000
G0 X99.5703 Y9.5969 Z2.3340
G1 X99.5703 Y9.5969 Z-0.6660 F180.00
G2 X99.5748 Y9.6471 Z-0.6660 I0.1999 J0.0074 F180.00
G1 X99.7286 Y10.3477 Z-0.6660 F180.00
G1 X99.7286 Y10.7139 Z-0.6660 F180.00
G2 X99.9286 Y10.9139 Z-0.6660 I0.2000 J0.0000 F180.00
G1 X100.3362 Y10.9139 Z-0.6660 F180.00
G2 X100.5362 Y10.7139 Z-0.6660 I0.0000 J-0.2000 F180.00
G2 X100.5194 Y10.2456 Z-0.6660 I-1.1244 J-0.1940 F180.00
G1 X100.2025 Y9.5239 Z-0.6660 F180.00
G1 X100.1369 Y9.4425 Z-0.6660 F180.00
G2 X99.7702 Y9.4043 Z-0.6660 I-0.2422 J0.5453 F180.00
G2 X99.5703 Y9.5969 Z-0.6660 I0.0000 J0.2000 F180.00
G0 X99.5703 Y9.5969 Z5.0000
G0 X100.7831 Y9.1333 Z5.0000
G0 X100.7831 Y9.1333 Z2.3340
G1 X100.7831 Y9.1333 Z-0.6660 F180.00
G2 X101.1872 Y9.3584 Z-0.6660 I0.6814 J-0.7478 F180.00
G1 X101.1872 Y9.8793 Z-0.6660 F180.00
G2 X101.3555 Y10.1101 Z-0.6660 I0.2739 J-0.0229 F180.00
G3 X102.3908 Y10.5071 Z-0.6660 I-1.4416 J5.3081 F180.00
G2 X103.7459 Y10.6092 Z-0.6660 I0.7560 J-0.9908 F180.00
G2 X103.8762 Y10.2170 Z-0.6660 I-0.2488 J-0.3004 F180.00
G3 X104.1701 Y10.1109 Z-0.6660 I0.7078 J1.5008 F180.00
G2 X104.5324 Y10.2621 Z-0.6660 I0.8524 J-1.5325 F180.00
G2 X104.5681 Y10.5558 Z-0.6660 I0.4870 J0.0898 F180.00
G2 X105.7275 Y10.7361 Z-0.6660 I0.7207 J-0.8168 F180.00
G3 X107.0814 Y10.1603 Z-0.6660 I2.5296 J4.0687 F180.00
G2 X107.2522 Y9.9268 Z-0.6660 I-0.0912 J-0.2459 F180.00
G1 X107.2522 Y9.3978 Z-0.6660 F180.00
G1 X107.3576 Y9.3599 Z-0.6660 F180.00
G2 X107.6997 Y9.0558 Z-0.6660 I-0.0560 J-0.4075 F180.00
G1 X107.6997 Y6.9258 Z-0.6660 F180.00
G1 X107.6648 Y6.8129 Z-0.6660 F180.00
G2 X107.2685 Y6.6176 Z-0.6660 I-1.1316 J1.7969 F180.00
G1 X107.3681 Y6.5761 Z-0.6660 F180.00
G2 X107.6928 Y6.3016 Z-0.6660 I-0.0500 J-0.3884 F180.00
G2 X107.6997 Y4.1618 Z-0.6660 I-165.0811 J-1.6049 F180.00
G1 X107.6809 Y4.0776 Z-0.6660 F180.00
G2 X107.2718 Y3.8279 Z-0.6660 I-0.7229 J0.7245 F180.00
G2 X107.0782 Y3.4120 Z-0.6660 I-0.4538 J-0.0418 F180.00
G2 X106.5365 Y3.2418 Z-0.6660 I-0.9260 J2.0005 F180.00
G2 X104.6705 Y3.9611 Z-0.6660 I6.0219 J18.4007 F180.00
G1 X104.5905 Y4.0204 Z-0.6660 F180.00
G2 X104.5314 Y4.6915 Z-0.6660 I1.8604 J0.5021 F180.00
G2 X104.2098 Y4.8487 Z-0.6660 I0.2664 J0.9524 F180.00
G2 X103.8926 Y4.6840 Z-0.6660 I-0.9555 J1.4523 F180.00
G3 X103.8774 Y4.3226 Z-0.6660 I1.5398 J-0.2458 F180.00
G2 X103.6749 Y3.9035 Z-0.6660 I-0.3983 J-0.0661 F180.00
G2 X101.8470 Y3.2365 Z-0.6660 I-33.4002 J88.6979 F180.00
G2 X101.4084 Y3.3994 Z-0.6660 I0.2906 J1.4542 F180.00
G2 X101.1822 Y3.8257 Z-0.6660 I0.1297 J0.3420 F180.00
G1 X101.0809 Y3.8663 Z-0.6660 F180.00
G2 X100.7531 Y4.1354 Z-0.6660 I0.0419 J0.3851 F180.00
G2 X100.7397 Y6.2692 Z-0.6660 I84.5510 J1.5986 F180.00
G1 X100.7620 Y6.3604 Z-0.6660 F180.00
G2 X101.1700 Y6.5935 Z-0.6660 I0.7290 J-0.8022 F180.00
G1 X101.0868 Y6.6276 Z-0.6660 F180.00
G2 X100.7532 Y6.8794 Z-0.6660 I0.0204 J0.3739 F180.00
G2 X100.7602 Y9.0481 Z-0.6660 I22.1157 J1.0133 F180.00
G1 X100.7831 Y9.1333 Z-0.6660 F180.00
G0 X100.7831 Y9.1333 Z5.0000
G0 X103.8824 Y7.4458 Z5.0000
G0 X103.8824 Y7.4458 Z2.3340
G1 X103.8824 Y7.4458 Z-0.6660 F180.00
G2 X104.1889 Y7.3337 Z-0.6660 I-1.6644 J-5.0260 F180.00
G2 X104.4903 Y7.4864 Z-0.6660 I0.9197 J-1.4423 F180.00
G2 X104.2205 Y7.6110 Z-0.6660 I0.6668 J1.7987 F180.00
G2 X103.8824 Y7.4458 Z-0.6660 I-0.7416 J1.0891 F180.00
G1 X103.8824 Y7.4458 Z-0.9990 F180.00
G2 X104.1889 Y7.3337 Z-0.9990 I-1.6644 J-5.0260 F180.00
G2 X104.4903 Y7.4864 Z-0.9990 I0.9197 J-1.4423 F180.00
G2 X104.2205 Y7.6110 Z-0.9990 I0.6668 J1.7987 F180.00
G2 X103.8824 Y7.4458 Z-0.9990 I-0.7416 J1.0891 F180.00
G0 X103.8824 Y7.4458 Z5.0000
G0 X104.2098 Y4.8487 Z5.0000
G0 X104.2098 Y4.8487 Z2.0010
G1 X104.2098 Y4.8487 Z-0.9990 F180.00
G2 X103.8926 Y4.6840 Z-0.9990 I-0.9555 J1.4523 F180.00
G3 X103.8774 Y4.3226 Z-0.9990 I1.5398 J-0.2458 F180.00
G2 X103.6749 Y3.9035 Z-0.9990 I-0.3983 J-0.0661 F180.00
G2 X101.8470 Y3.2365 Z-0.9990 I-33.4002 J88.6979 F180.00
G2 X101.4084 Y3.3994 Z-0.9990 I0.2906 J1.4542 F180.00
G2 X101.1822 Y3.8257 Z-0.9990 I0.1297 J0.3420 F180.00
G1 X101.0809 Y3.8663 Z-0.9990 F180.00
G2 X100.7531 Y4.1354 Z-0.9990 I0.0419 J0.3851 F180.00
G2 X100.7397 Y6.2692 Z-0.9990 I84.5510 J1.5986 F180.00
G1 X100.7620 Y6.3604 Z-0.9990 F180.00
G2 X101.1700 Y6.5935 Z-0.9990 I0.7290 J-0.8022 F180.00
G1 X101.0868 Y6.6276 Z-0.9990 F180.00
G2 X100.7532 Y6.8794 Z-0.9990 I0.0204 J0.3739 F180.00
G2 X100.7602 Y9.0481 Z-0.9990 I22.1157 J1.0133 F180.00
G1 X100.7831 Y9.1333 Z-0.9990 F180.00
G2 X101.1872 Y9.3584 Z-0.9990 I0.6814 J-0.7478 F180.00
G1 X101.1872 Y9.8793 Z-0.9990 F180.00
G2 X101.3555 Y10.1101 Z-0.9990 I0.2739 J-0.0229 F180.00
G3 X102.3908 Y10.5071 Z-0.9990 I-1.4416 J5.3081 F180.00
G2 X103.7459 Y10.6092 Z-0.9990 I0.7560 J-0.9908 F180.00
G2 X103.8762 Y10.2170 Z-0.9990 I-0.2488 J-0.3004 F180.00
G3 X104.1701 Y10.1109 Z-0.9990 I0.7078 J1.5008 F180.00
G2 X104.5324 Y10.2621 Z-0.9990 I0.8524 J-1.5325 F180.00
G2 X104.5681 Y10.5558 Z-0.9990 I0.4870 J0.0898 F180.00
G2 X105.7275 Y10.7361 Z-0.9990 I0.7207 J-0.8168 F180.00
G3 X107.0814 Y10.1603 Z-0.9990 I2.5296 J4.0687 F180.00
G2 X107.2522 Y9.9268 Z-0.9990 I-0.0912 J-0.2459 F180.00
G1 X107.2522 Y9.3978 Z-0.9990 F180.00
G1 X107.3576 Y9.3599 Z-0.9990 F180.00
G2 X107.6997 Y9.0558 Z-0.9990 I-0.0560 J-0.4075 F180.00
G1 X107.6997 Y6.9258 Z-0.9990 F180.00
G1 X107.6648 Y6.8129 Z-0.9990 F180.00
G2 X107.2685 Y6.6176 Z-0.9990 I-1.1316 J1.7969 F180.00
G1 X107.3681 Y6.5761 Z-0.9990 F180.00
G2 X107.6928 Y6.3016 Z-0.9990 I-0.0500 J-0.3884 F180.00
G2 X107.6997 Y4.1618 Z-0.9990 I-165.0811 J-1.6049 F180.00
G1 X107.6809 Y4.0776 Z-0.9990 F180.00
G2 X107.2718 Y3.8279 Z-0.9990 I-0.7229 J0.7245 F180.00
G2 X107.0782 Y3.4120 Z-0.9990 I-0.4538 J-0.0418 F180.00
G2 X106.5365 Y3.2418 Z-0.9990 I-0.9260 J2.0005 F180.00
G2 X104.6705 Y3.9611 Z-0.9990 I6.0219 J18.4007 F180.00
G1 X104.5905 Y4.0204 Z-0.9990 F180.00
G2 X104.5314 Y4.6915 Z-0.9990 I1.8604 J0.5021 F180.00
G2 X104.2098 Y4.8487 Z-0.9990 I0.2664 J0.9524 F180.00
G0 X104.2098 Y4.8487 Z5.0000
G0 X100.1369 Y9.4425 Z5.0000
G0 X100.1369 Y9.4425 Z2.0010
G1 X100.1369 Y9.4425 Z-0.9990 F180.00
G2 X99.7702 Y9.4043 Z-0.9990 I-0.2422 J0.5453 F180.00
G2 X99.5748 Y9.6471 Z-0.9990 I0.0000 J0.2000 F180.00
G1 X99.7286 Y10.3477 Z-0.9990 F180.00
G1 X99.7286 Y10.7139 Z-0.9990 F180.00
G2 X99.9286 Y10.9139 Z-0.9990 I0.2000 J0.0000 F180.00
G1 X100.3362 Y10.9139 Z-0.9990 F180.00
G2 X100.5362 Y10.7139 Z-0.9990 I0.0000 J-0.2000 F180.00
G2 X100.5194 Y10.2456 Z-0.9990 I-1.1244 J-0.1940 F180.00
G1 X100.2025 Y9.5239 Z-0.9990 F180.00
G1 X100.1369 Y9.4425 Z-0.9990 F180.00
G0 X100.1369 Y9.4425 Z5.0000
G0 X97.5842 Y9.4425 Z5.0000
G0 X97.5842 Y9.4425 Z2.0010
G1 X97.5842 Y9.4425 Z-0.9990 F180.00
G1 X97.5842 Y7.7572 Z-0.9990 F180.00
G1 X97.5540 Y7.6515 Z-0.9990 F180.00
G2 X97.1433 Y7.4460 Z-0.9990 I-0.7639 J1.0133 F180.00
G1 X97.1433 Y6.9257 Z-0.9990 F180.00
G2 X97.1008 Y6.7947 Z-0.9990 I-0.2920 J0.0223 F180.00
G2 X96.6956 Y6.5878 Z-0.9990 I-1.3341 J2.1124 F180.00
G1 X96.6956 Y3.9800 Z-0.9990 F180.00
G2 X96.2593 Y3.6547 Z-0.9990 I-0.4296 J0.1210 F180.00
G2 X95.9482 Y3.5231 Z-0.9990 I-1.3343 J2.7214 F180.00
G2 X95.2350 Y3.5089 Z-0.9990 I-0.3681 J0.5695 F180.00
G2 X94.8984 Y3.8022 Z-0.9990 I0.0552 J0.4032 F180.00
G3 X94.8709 Y6.0704 Z-0.9990 I-24.3994 J0.8386 F180.00
G1 X94.7822 Y6.1084 Z-0.9990 F180.00
G2 X94.4592 Y6.3528 Z-0.9990 I0.0536 J0.4065 F180.00
G3 X94.4168 Y6.6022 Z-0.9990 I-0.6731 J0.0139 F180.00
G2 X94.0233 Y6.8837 Z-0.9990 I0.0166 J0.4390 F180.00
G1 X94.0158 Y7.5017 Z-0.9990 F180.00
G2 X93.7602 Y7.3920 Z-0.9990 I-1.1409 J2.3058 F180.00
G1 X93.7602 Y7.2029 Z-0.9990 F180.00
G2 X93.2990 Y6.8581 Z-0.9990 I-0.5503 J0.2553 F180.00
G2 X93.2470 Y6.5219 Z-0.9990 I-0.4607 J-0.1008 F180.00
G2 X92.8613 Y6.3312 Z-0.9990 I-1.3359 J2.2153 F180.00
G3 X92.8282 Y6.0548 Z-0.9990 I1.0797 J-0.2694 F180.00
G2 X92.3901 Y5.7878 Z-0.9990 I-0.6870 J0.6343 F180.00
G1 X92.3901 Y5.0938 Z-0.9990 F180.00
G3 X94.0643 Y4.4366 Z-0.9990 I15.3243 J36.5786 F180.00
G2 X94.2147 Y4.2096 Z-0.9990 I-0.1182 J-0.2416 F180.00
G1 X94.2147 Y3.4653 Z-0.9990 F180.00
G1 X94.1935 Y3.3757 Z-0.9990 F180.00
G2 X93.5126 Y3.0651 Z-0.9990 I-0.8447 J0.9499 F180.00
G1 X93.5124 Y3.0658 Z-0.9990 F180.00
G2 X93.3982 Y3.0687 Z-0.9990 I-0.0525 J0.1829 F180.00
G2 X90.6853 Y4.1528 Z-0.9990 I101.6206 J258.2414 F180.00
G1 X90.6719 Y4.1269 Z-0.9990 F180.00
G2 X90.2335 Y3.9583 Z-0.9990 I-0.5648 J0.8141 F180.00
G2 X89.2652 Y3.8394 Z-0.9990 I-0.6204 J1.0503 F180.00
G2 X89.0001 Y4.0816 Z-0.9990 I0.1175 J0.3947 F180.00
G1 X88.9910 Y3.6041 Z-0.9990 F180.00
G1 X88.9672 Y3.5133 Z-0.9990 F180.00
G2 X88.1384 Y3.1313 Z-0.9990 I-1.3467 J1.8322 F180.00
G2 X87.3175 Y3.2637 Z-0.9990 I-0.2799 J0.8758 F180.00
G2 X86.7144 Y3.0599 Z-0.9990 I-0.5914 J0.7554 F180.00
G2 X83.9673 Y4.1191 Z-0.9990 I14.3718 J41.3651 F180.00
G2 X83.8419 Y4.3038 Z-0.9990 I0.0746 J0.1856 F180.00
G2 X83.8837 Y10.2432 Z-0.9990 I192.2040 J1.6168 F180.00
G2 X83.9221 Y10.7181 Z-0.9990 I1.1841 J0.1433 F180.00
G2 X84.5919 Y10.9862 Z-0.9990 I0.5377 J-0.3725 F180.00
G2 X85.2747 Y10.7350 Z-0.9990 I-16.5187 J-45.9505 F180.00
G2 X85.6457 Y10.4706 Z-0.9990 I0.0155 J-0.3707 F180.00
G1 X85.6526 Y5.0401 Z-0.9990 F180.00
G2 X87.1935 Y4.4337 Z-0.9990 I-8.5189 J-23.9072 F180.00
G1 X87.1935 Y8.3432 Z-0.9990 F180.00
G1 X87.2236 Y8.4487 Z-0.9990 F180.00
G2 X87.6415 Y8.6559 Z-0.9990 I0.7684 J-1.0250 F180.00
G2 X87.6577 Y9.2535 Z-0.9990 I1.4601 J0.2593 F180.00
G2 X88.0890 Y9.5251 Z-0.9990 I0.7386 J-0.6945 F180.00
G1 X88.0890 Y10.0534 Z-0.9990 F180.00
G2 X88.2067 Y10.2415 Z-0.9990 I0.3286 J-0.0748 F180.00
G2 X88.6825 Y10.4457 Z-0.9990 I0.5941 J-0.7276 F180.00
G2 X89.6297 Y10.5180 Z-0.9990 I0.5530 J-1.0038 F180.00
G2 X89.8772 Y10.0487 Z-0.9990 I-0.1514 J-0.3798 F180.00
G2 X90.3023 Y9.8149 Z-0.9990 I-1.0226 J-2.3628 F180.00
G2 X90.3405 Y9.5147 Z-0.9990 I-0.4428 J-0.2089 F180.00
G1 X90.4365 Y9.4770 Z-0.9990 F180.00
G2 X90.7746 Y9.1754 Z-0.9990 I-0.0595 J-0.4070 F180.00
G2 X90.7786 Y6.7728 Z-0.9990 I-207.9779 J-1.5485 F180.00
G2 X90.9821 Y6.8545 Z-0.9990 I1.3196 J-2.9925 F180.00
G2 X91.0509 Y7.1929 Z-0.9990 I3.2725 J-0.4890 F180.00
G2 X91.4361 Y7.3807 Z-0.9990 I1.4713 J-2.5291 F180.00
G3 X91.4749 Y7.6715 Z-0.9990 I-1.3898 J0.3332 F180.00
G2 X91.9087 Y7.9267 Z-0.9990 I0.8051 J-0.8721 F180.00
G2 X91.9437 Y8.2266 Z-0.9990 I0.5015 J0.0934 F180.00
G2 X92.3631 Y8.4515 Z-0.9990 I0.6049 J-0.6247 F180.00
G1 X92.3631 Y9.1371 Z-0.9990 F180.00
G3 X90.6920 Y9.8201 Z-0.9990 I-23.7776 J-55.7915 F180.00
G1 X90.5974 Y9.8979 Z-0.9990 F180.00
G2 X90.5949 Y10.9020 Z-0.9990 I1.5852 J0.5061 F180.00
G2 X91.2149 Y11.1462 Z-0.9990 I0.7613 J-1.0234 F180.00
G2 X94.0614 Y10.1127 Z-0.9990 I-11.4557 J-35.9885 F180.00
G2 X94.2001 Y9.9346 Z-0.9990 I-0.1224 J-0.2383 F180.00
G2 X94.7964 Y10.1717 Z-0.9990 I2.3595 J-5.0657 F180.00
G2 X95.7801 Y9.9420 Z-0.9990 I0.3627 J-0.6679 F180.00
G1 X95.7801 Y10.4020 Z-0.9990 F180.00
G1 X95.8034 Y10.4956 Z-0.9990 F180.00
G2 X96.9767 Y10.9482 Z-0.9990 I1.4918 J-2.1201 F180.00
G2 X97.5842 Y10.5604 Z-0.9990 I0.0122 J-0.6506 F180.00
G1 X97.5842 Y9.4425 Z-0.9990 F180.00
G1 X97.5842 Y9.4425 Z-1.0000 F180.00
G1 X97.5842 Y7.7572 Z-1.0000 F180.00
G1 X97.5540 Y7.6515 Z-1.0000 F180.00
G2 X97.1433 Y7.4460 Z-1.0000 I-0.7639 J1.0133 F180.00
G1 X97.1433 Y6.9257 Z-1.0000 F180.00
G2 X97.1008 Y6.7947 Z-1.0000 I-0.2920 J0.0223 F180.00
G2 X96.6956 Y6.5878 Z-1.0000 I-1.3341 J2.1124 F180.00
G1 X96.6956 Y3.9800 Z-1.0000 F180.00
G2 X96.2593 Y3.6547 Z-1.0000 I-0.4296 J0.1210 F180.00
G2 X95.9482 Y3.5231 Z-1.0000 I-1.3343 J2.7214 F180.00
G2 X95.2350 Y3.5089 Z-1.0000 I-0.3681 J0.5695 F180.00
G2 X94.8984 Y3.8022 Z-1.0000 I0.0552 J0.4032 F180.00
G3 X94.8709 Y6.0704 Z-1.0000 I-24.3994 J0.8386 F180.00
G1 X94.7822 Y6.1084 Z-1.0000 F180.00
G2 X94.4592 Y6.3528 Z-1.0000 I0.0536 J0.4065 F180.00
G3 X94.4168 Y6.6022 Z-1.0000 I-0.6731 J0.0139 F180.00
G2 X94.0233 Y6.8837 Z-1.0000 I0.0166 J0.4390 F180.00
G1 X94.0158 Y7.5017 Z-1.0000 F180.00
G2 X93.7602 Y7.3920 Z-1.0000 I-1.1409 J2.3058 F180.00
G1 X93.7602 Y7.2029 Z-1.0000 F180.00
G2 X93.2990 Y6.8581 Z-1.0000 I-0.5503 J0.2553 F180.00
G2 X93.2470 Y6.5219 Z-1.0000 I-0.4607 J-0.1008 F180.00
G2 X92.8613 Y6.3312 Z-1.0000 I-1.3359 J2.2153 F180.00
G3 X92.8282 Y6.0548 Z-1.0000 I1.0797 J-0.2694 F180.00
G2 X92.3901 Y5.7878 Z-1.0000 I-0.6870 J0.6343 F180.00
G1 X92.3901 Y5.0938 Z-1.0000 F180.00
G3 X94.0643 Y4.4366 Z-1.0000 I15.3243 J36.5786 F180.00
G2 X94.2147 Y4.2096 Z-1.0000 I-0.1182 J-0.2416 F180.00
G1 X94.2147 Y3.4653 Z-1.0000 F180.00
G1 X94.1935 Y3.3757 Z-1.0000 F180.00
G2 X93.5126 Y3.0651 Z-1.0000 I-0.8447 J0.9499 F180.00
G1 X93.5124 Y3.0658 Z-1.0000 F180.00
G2 X93.3982 Y3.0687 Z-1.0000 I-0.0525 J0.1829 F180.00
G2 X90.6853 Y4.1528 Z-1.0000 I101.6206 J258.2414 F180.00
G1 X90.6719 Y4.1269 Z-1.0000 F180.00
G2 X90.2335 Y3.9583 Z-1.0000 I-0.5648 J0.8141 F180.00
G2 X89.2652 Y3.8394 Z-1.0000 I-0.6204 J1.0503 F180.00
G2 X89.0001 Y4.0816 Z-1.0000 I0.1175 J0.3947 F180.00
G1 X88.9910 Y3.6041 Z-1.0000 F180.00
G1 X88.9672 Y3.5133 Z-1.0000 F180.00
G2 X88.1384 Y3.1313 Z-1.0000 I-1.3467 J1.8322 F180.00
G2 X87.3175 Y3.2637 Z-1.0000 I-0.2799 J0.8758 F180.00
G2 X86.7144 Y3.0599 Z-1.0000 I-0.5914 J0.7554 F180.00
G2 X83.9673 Y4.1191 Z-1.0000 I14.3718 J41.3651 F180.00
G2 X83.8419 Y4.3038 Z-1.0000 I0.0746 J0.1856 F180.00
G2 X83.8837 Y10.2432 Z-1.0000 I192.2040 J1.6168 F180.00
G2 X83.9221 Y10.7181 Z-1.0000 I1.1841 J0.1433 F180.00
G2 X84.5919 Y10.9862 Z-1.0000 I0.5377 J-0.3725 F180.00
G2 X85.2747 Y10.7350 Z-1.0000 I-16.5187 J-45.9505 F180.00
G2 X85.6457 Y10.4706 Z-1.0000 I0.0155 J-0.3707 F180.00
G1 X85.6526 Y5.0401 Z-1.0000 F180.00
G2 X87.1935 Y4.4337 Z-1.0000 I-8.5189 J-23.9072 F180.00
G1 X87.1935 Y8.3432 Z-1.0000 F180.00
G1 X87.2236 Y8.4487 Z-1.0000 F180.00
G2 X87.6415 Y8.6559 Z-1.0000 I0.7684 J-1.0250 F180.00
G2 X87.6577 Y9.2535 Z-1.0000 I1.4601 J0.2593 F180.00
G2 X88.0890 Y9.5251 Z-1.0000 I0.7386 J-0.6945 F180.00
G1 X88.0890 Y10.0534 Z-1.0000 F180.00
G2 X88.2067 Y10.2415 Z-1.0000 I0.3286 J-0.0748 F180.00
G2 X88.6825 Y10.4457 Z-1.0000 I0.5941 J-0.7276 F180.00
G2 X89.6297 Y10.5180 Z-1.0000 I0.5530 J-1.0038 F180.00
G2 X89.8772 Y10.0487 Z-1.0000 I-0.1514 J-0.3798 F180.00
G2 X90.3023 Y9.8149 Z-1.0000 I-1.0226 J-2.3628 F180.00
G2 X90.3405 Y9.5147 Z-1.0000 I-0.4428 J-0.2089 F180.00
G1 X90.4365 Y9.4770 Z-1.0000 F180.00
G2 X90.7746 Y9.1754 Z-1.0000 I-0.0595 J-0.4070 F180.00
G2 X90.7786 Y6.7728 Z-1.0000 I-207.9779 J-1.5485 F180.00
G2 X90.9821 Y6.8545 Z-1.0000 I1.3196 J-2.9925 F180.00
G2 X91.0509 Y7.1929 Z-1.0000 I3.2725 J-0.4890 F180.00
G2 X91.4361 Y7.3807 Z-1.0000 I1.4713 J-2.5291 F180.00
G3 X91.4749 Y7.6715 Z-1.0000 I-1.3898 J0.3332 F180.00
G2 X91.9087 Y7.9267 Z-1.0000 I0.8051 J-0.8721 F180.00
G2 X91.9437 Y8.2266 Z-1.0000 I0.5015 J0.0934 F180.00
G2 X92.3631 Y8.4515 Z-1.0000 I0.6049 J-0.6247 F180.00
G1 X92.3631 Y9.1371 Z-1.0000 F180.00
G3 X90.6920 Y9.8201 Z-1.0000 I-23.7776 J-55.7915 F180.00
G1 X90.5974 Y9.8979 Z-1.0000 F180.00
G2 X90.5949 Y10.9020 Z-1.0000 I1.5852 J0.5061 F180.00
G2 X91.2149 Y11.1462 Z-1.0000 I0.7613 J-1.0234 F180.00
G2 X94.0614 Y10.1127 Z-1.0000 I-11.4557 J-35.9885 F180.00
G2 X94.2001 Y9.9346 Z-1.0000 I-0.1224 J-0.2383 F180.00
G2 X94.7964 Y10.1717 Z-1.0000 I2.3595 J-5.0657 F180.00
G2 X95.7801 Y9.9420 Z-1.0000 I0.3627 J-0.6679 F180.00
G1 X95.7801 Y10.4020 Z-1.0000 F180.00
G1 X95.8034 Y10.4956 Z-1.0000 F180.00
G2 X96.9767 Y10.9482 Z-1.0000 I1.4918 J-2.1201 F180.00
G2 X97.5842 Y10.5604 Z-1.0000 I0.0122 J-0.6506 F180.00
G1 X97.5842 Y9.4425 Z-1.0000 F180.00
G0 X97.5842 Y9.4425 Z5.0000
G0 X99.5707 Y9.5895 Z5.0000
G0 X99.5707 Y9.5895 Z2.0000
G1 X99.5707 Y9.5895 Z-1.0000 F180.00
G2 X99.5748 Y9.6471 Z-1.0000 I0.1995 J0.0148 F180.00
G1 X99.7286 Y10.3477 Z-1.0000 F180.00
G1 X99.7286 Y10.7139 Z-1.0000 F180.00
G2 X99.9286 Y10.9139 Z-1.0000 I0.2000 J0.0000 F180.00
G1 X100.3362 Y10.9139 Z-1.0000 F180.00
G2 X100.5362 Y10.7139 Z-1.0000 I0.0000 J-0.2000 F180.00
G2 X100.5194 Y10.2456 Z-1.0000 I-1.1244 J-0.1940 F180.00
G1 X100.2025 Y9.5239 Z-1.0000 F180.00
G1 X100.1369 Y9.4425 Z-1.0000 F180.00
G2 X99.7702 Y9.4043 Z-1.0000 I-0.2422 J0.5453 F180.00
G2 X99.5707 Y9.5895 Z-1.0000 I0.0000 J0.2000 F180.00
G0 X99.5707 Y9.5895 Z5.0000
G0 X100.7831 Y9.1333 Z5.0000
G0 X100.7831 Y9.1333 Z2.0000
G1 X100.7831 Y9.1333 Z-1.0000 F180.00
G2 X101.1872 Y9.3584 Z-1.0000 I0.6814 J-0.7478 F180.00
G1 X101.1872 Y9.8793 Z-1.0000 F180.00
G2 X101.3555 Y10.1101 Z-1.0000 I0.2739 J-0.0229 F180.00
G3 X102.3908 Y10.5071 Z-1.0000 I-1.4416 J5.3081 F180.00
G2 X103.7459 Y10.6092 Z-1.0000 I0.7560 J-0.9908 F180.00
G2 X103.8762 Y10.2170 Z-1.0000 I-0.2488 J-0.3004 F180.00
G3 X104.1701 Y10.1109 Z-1.0000 I0.7078 J1.5008 F180.00
G2 X104.5324 Y10.2621 Z-1.0000 I0.8524 J-1.5325 F180.00
G2 X104.5681 Y10.5558 Z-1.0000 I0.4870 J0.0898 F180.00
G2 X105.7275 Y10.7361 Z-1.0000 I0.7207 J-0.8168 F180.00
G3 X107.0814 Y10.1603 Z-1.0000 I2.5296 J4.0687 F180.00
G2 X107.2522 Y9.9268 Z-1.0000 I-0.0912 J-0.2459 F180.00
G1 X107.2522 Y9.3978 Z-1.0000 F180.00
G1 X107.3576 Y9.3599 Z-1.0000 F180.00
G2 X107.6997 Y9.0558 Z-1.0000 I-0.0560 J-0.4075 F180.00
G1 X107.6997 Y6.9258 Z-1.0000 F180.00
G1 X107.6648 Y6.8129 Z-1.0000 F180.00
G2 X107.2685 Y6.6176 Z-1.0000 I-1.1316 J1.7969 F180.00
G1 X107.3681 Y6.5761 Z-1.0000 F180.00
G2 X107.6928 Y6.3016 Z-1.0000 I-0.0500 J-0.3884 F180.00
G2 X107.6997 Y4.1618 Z-1.0000 I-165.0811 J-1.6049 F180.00
G1 X107.6809 Y4.0776 Z-1.0000 F180.00
G2 X107.2718 Y3.8279 Z-1.0000 I-0.7229 J0.7245 F180.00
G2 X107.0782 Y3.4120 Z-1.0000 I-0.4538 J-0.0418 F180.00
G2 X106.5365 Y3.2418 Z-1.0000 I-0.9260 J2.0005 F180.00
G2 X104.6705 Y3.9611 Z-1.0000 I6.0219 J18.4007 F180.00
G1 X104.5905 Y4.0204 Z-1.0000 F180.00
G2 X104.5314 Y4.6915 Z-1.0000 I1.8604 J0.5021 F180.00
G2 X104.2098 Y4.8487 Z-1.0000 I0.2664 J0.9524 F180.00
G2 X103.8926 Y4.6840 Z-1.0000 I-0.9555 J1.4523 F180.00
G3 X103.8774 Y4.3226 Z-1.0000 I1.5398 J-0.2458 F180.00
G2 X103.6749 Y3.9035 Z-1.0000 I-0.3983 J-0.0661 F180.00
G2 X101.8470 Y3.2365 Z-1.0000 I-33.4002 J88.6979 F180.00
G2 X101.4084 Y3.3994 Z-1.0000 I0.2906 J1.4542 F180.00
G2 X101.1822 Y3.8257 Z-1.0000 I0.1297 J0.3420 F180.00
G1 X101.0809 Y3.8663 Z-1.0000 F180.00
G2 X100.7531 Y4.1354 Z-1.0000 I0.0419 J0.3851 F180.00
G2 X100.7397 Y6.2692 Z-1.0000 I84.5510 J1.5986 F180.00
G1 X100.7620 Y6.3604 Z-1.0000 F180.00
G2 X101.1700 Y6.5935 Z-1.0000 I0.7290 J-0.8022 F180.00
G1 X101.0868 Y6.6276 Z-1.0000 F180.00
G2 X100.7532 Y6.8794 Z-1.0000 I0.0204 J0.3739 F180.00
G2 X100.7602 Y9.0481 Z-1.0000 I22.1157 J1.0133 F180.00
G1 X100.7831 Y9.1333 Z-1.0000 F180.00
G0 X100.7831 Y9.1333 Z5.0000
G0 X103.8824 Y7.4458 Z5.0000
G0 X103.8824 Y7.4458 Z2.0000
G1 X103.8824 Y7.4458 Z-1.0000 F180.00
G2 X104.1889 Y7.3337 Z-1.0000 I-1.6644 J-5.0260 F180.00
G2 X104.4903 Y7.4864 Z-1.0000 I0.9197 J-1.4423 F180.00
G2 X104.2205 Y7.6110 Z-1.0000 I0.6668 J1.7987 F180.00
G2 X103.8824 Y7.4458 Z-1.0000 I-0.7416 J1.0891 F180.00
G0 Z5.0000
(finish operation: Contour)
(begin postamble)
M5
G17 G90
; M2
